fileicons/icons/haskell.svg

<?xml version="1.0" encoding="UTF-8" standalone="no"?>
<svg
   xmlns:dc="http://purl.org/dc/elements/1.1/"
   xmlns:cc="http://creativecommons.org/ns#"
   xmlns:rdf="http://www.w3.org/1999/02/22-rdf-syntax-ns#"
   xmlns:svg="http://www.w3.org/2000/svg"
   xmlns="http://www.w3.org/2000/svg"
   xmlns:sodipodi="http://sodipodi.sourceforge.net/DTD/sodipodi-0.dtd"
   xmlns:inkscape="http://www.inkscape.org/namespaces/inkscape"
   version="1.1"
   width="24"
   height="24"
   viewBox="0 0 24 24"
   id="svg2"
   inkscape:version="0.91 r13725"
   sodipodi:docname="haskell.svg">
  <metadata
     id="metadata10">
    <rdf:RDF>
      <cc:Work
         rdf:about="">
        <dc:format>image/svg+xml</dc:format>
        <dc:type
           rdf:resource="http://purl.org/dc/dcmitype/StillImage" />
        <dc:title></dc:title>
      </cc:Work>
    </rdf:RDF>
  </metadata>
  <defs
     id="defs8" />
  <sodipodi:namedview
     pagecolor="#ffffff"
     bordercolor="#666666"
     borderopacity="1"
     objecttolerance="10"
     gridtolerance="10"
     guidetolerance="10"
     inkscape:pageopacity="0"
     inkscape:pageshadow="2"
     inkscape:window-width="1366"
     inkscape:window-height="705"
     id="namedview6"
     showgrid="false"
     showguides="true"
     inkscape:guide-bbox="true"
     inkscape:zoom="19.666667"
     inkscape:cx="9.0667814"
     inkscape:cy="13.613054"
     inkscape:window-x="-8"
     inkscape:window-y="-8"
     inkscape:window-maximized="1"
     inkscape:current-layer="svg2" />
  <text
     xml:space="preserve"
     style="font-style:normal;font-weight:normal;font-size:27.80495071px;line-height:125%;font-family:sans-serif;letter-spacing:0px;word-spacing:0px;fill:#ffa726;fill-opacity:1;stroke:none;stroke-width:1px;stroke-linecap:butt;stroke-linejoin:miter;stroke-opacity:1;"
     x="4.4126229"
     y="-9.6839819"
     id="text3350"
     sodipodi:linespacing="125%"
     transform="scale(1.0650165,-0.93895258)"><tspan
       sodipodi:role="line"
       id="tspan3352"
       x="4.4126229"
       y="-9.6839819"
       style="font-style:normal;font-variant:normal;font-weight:normal;font-stretch:normal;font-family:'Tw Cen MT';-inkscape-font-specification:'Tw Cen MT';fill:#ffa726;fill-opacity:1;">y</tspan></text>
  <path
     style="font-style:normal;font-weight:normal;font-size:24.91161346px;line-height:125%;font-family:sans-serif;letter-spacing:0px;word-spacing:0px;fill:#ef5350;fill-opacity:1;stroke:none;stroke-width:1px;stroke-linecap:butt;stroke-linejoin:miter;stroke-opacity:1"
     d="m 2.4073491,4.1201999 3.9329649,7.5202641 -6.01553247,7.929642 2.84872957,0 0.664007,-0.878114 -0.04179,-0.02661 5.2586574,-6.840698 -4.0165462,-7.7044841 -2.6304896,0 z"
     id="text3350-9"
     inkscape:connector-curvature="0" />
  <path
     style="fill:#ffee58;fill-opacity:1"
     d="M 14.585938 8.6445312 L 15.695312 10.779297 L 22.728516 10.779297 L 22.728516 8.6445312 L 14.585938 8.6445312 z M 16.726562 12.662109 L 17.835938 14.796875 L 22.652344 14.796875 L 22.652344 12.662109 L 16.726562 12.662109 z "
     id="rect4178" />
</svg>

<svg xmlns="http://www.w3.org/2000/svg" width="24" height="24" viewBox="0 0 24 24"><text style="line-height:125%" x="4.413" y="-9.684" transform="scale(1.06502 -.93895)" font-weight="400" font-size="27.805" font-family="sans-serif" letter-spacing="0" word-spacing="0" fill="#ffa726"><tspan x="4.413" y="-9.684" style="-inkscape-font-specification:'Tw Cen MT'" font-family="Tw Cen MT">y</tspan></text><path style="line-height:125%" d="M2.407 4.12l3.933 7.52-6.015 7.93h2.849l.664-.878-.042-.027 5.258-6.84L5.038 4.12h-2.63z" font-weight="400" font-size="24.912" font-family="sans-serif" letter-spacing="0" word-spacing="0" fill="#ef5350"/><path d="M14.586 8.645l1.11 2.134h7.033V8.645h-8.143zm2.14 4.017l1.11 2.135h4.816v-2.135h-5.925z" fill="#ffee58"/></svg>
